flaticon/stationery/pencil-1.svg

<svg xmlns="http://www.w3.org/2000/svg" width="32" height="32" viewBox="0 0 24 24">
    <path d="M 22.367188 1.660156 C 22.363281 1.660156 22.328125 1.621094 22.324219 1.617188 C 20.394531 -0.308594 16.808594 -0.789062 14.292969 1.726562 L 3.3125 12.695312 C 3.253906 12.757812 3.210938 12.828125 3.1875 12.910156 L 0.0273438 23.339844 C -0.105469 23.847656 0.242188 24.066406 0.664062 23.976562 L 11.101562 20.820312 C 11.183594 20.796875 11.257812 20.753906 11.316406 20.691406 L 22.296875 9.722656 C 24.53125 7.488281 24.578125 3.886719 22.367188 1.660156 Z M 1.28125 22.722656 L 2.488281 18.742188 C 3.054688 19.070312 4.199219 19.765625 5.265625 21.519531 Z M 6.265625 21.214844 C 5.28125 19.269531 3.515625 18.132812 2.789062 17.742188 L 3.988281 13.789062 C 5.316406 14.5 8.574219 16.617188 10.222656 20.019531 Z M 11.089844 19.476562 C 8.992188 15.597656 5.925781 13.675781 4.53125 12.921875 L 13.613281 3.847656 L 20.171875 10.402344 Z M 21.574219 9 L 20.894531 9.679688 L 14.335938 3.125 L 15.015625 2.445312 C 16.820312 0.640625 19.804688 0.546875 21.605469 2.339844 L 21.679688 2.417969 C 23.460938 4.210938 23.414062 7.164062 21.574219 9 Z M 21.574219 9"/>
</svg>

<svg xmlns="http://www.w3.org/2000/svg" width="32" height="32" viewBox="0 0 24 24">
    <path d="M22.367 1.66c-.004 0-.039-.039-.043-.043a5.67 5.67 0 0 0-8.031.11L3.313 12.695a.52.52 0 0 0-.126.215L.027 23.34c-.132.508.215.726.637.637l10.438-3.157a.468.468 0 0 0 .214-.129l10.98-10.968c2.235-2.235 2.282-5.836.071-8.063zM1.281 22.723l1.207-3.98c.567.327 1.711 1.023 2.778 2.777zm4.985-1.508c-.985-1.945-2.75-3.082-3.477-3.473l1.2-3.953c1.327.711 4.585 2.828 6.234 6.23zm4.824-1.738a16.279 16.279 0 0 0-6.559-6.555l9.082-9.074 6.559 6.554zM21.574 9l-.68.68-6.558-6.555.68-.68C16.82.641 19.805.547 21.606 2.34l.074.078c1.78 1.793 1.734 4.746-.106 6.582zm0 0"/>
</svg>
